assets/img/doc.svg

<svg width="255" height="312" viewBox="0 0 255 312" fill="none" xmlns="http://www.w3.org/2000/svg">
<path d="M28.9914 29.2292H226.66V282.246H28.9914V29.2292L0 56.9029V311.237H254.334V0.237793H56.6651L28.9914 29.2292Z" fill="#282828"/>
<path d="M177.899 121.474L158.132 141.241L113.327 186.046L97.5137 170.232L76.429 150.466L56.6621 170.232L113.327 226.898L197.666 141.241L177.899 121.474Z" fill="#282828"/>
</svg>

<svg width="255" height="312" fill="none" xmlns="http://www.w3.org/2000/svg"><path d="M28.991 29.23H226.66v253.016H28.991V29.229L0 56.903v254.334h254.334v-311H56.665L28.991 29.23Z" fill="#282828"/><path d="m177.899 121.474-19.767 19.767-44.805 44.805-15.813-15.814-21.085-19.766-19.767 19.766 56.665 56.666 84.339-85.657-19.767-19.767Z" fill="#282828"/></svg>
